modules/defaultemblems/img/Flag_of_Edward_England.svg

<?xml version="1.0" encoding="utf-8"?>
<!-- https://commons.wikimedia.org/wiki/File:Flag_of_Edward_England.svg -->
<svg height="334.33282" viewBox="209.742 68.667 330.64343 334.33282" width="330.64343" xmlns="http://www.w3.org/2000/svg">
  <g class="emblem-color">
    <path d="m255 221c-7 0-16 5-20 11-2 4-5 7-8 7-9 2-19 17-17 25 2 10 10 14 28 16 28 4 76 23 124 49 48 27 66 36 70 36 3 0 14 8 24 17 5 5 13 11 17 14 15 9 25 7 35-9 2-3 4-5 6-4 4 1 13-3 16-8 2-5 2-14-2-17-6-6-11-7-38-9-29-1-43-5-61-15-5-3-14-7-19-10s-19-11-30-17c-24-14-58-33-73-40-14-8-26-18-34-30-7-11-12-16-18-16zm-7.5 36.875c.25-.125 0 .625-.5 2.125-1 4 0 4 10 7s23 9 23 11c0 1-2 0-7-2-3-1-11-4-17-5-7-2-12-4-13-5s0-3 2-5c1.5-2 2.25-3 2.5-3.125zm200.5 102.125c1 0 10 6 22 16 10 9 12 9 17 8 7-2 10 0 4 3s-8 3-23-9c-7-7-15-13-18-14s-5-4-2-4zm58.34375 3c.47266-.00586 1.03125 0 1.65625 0 2 0 4 1 4 2 0 3-3 3-6 1-2.625-2.625-2.96484-2.95898.34375-3z"/>
    <path d="m339 320-16 8c-29 13-41 15-84 13-11-1-15 0-21 3-7 4-9 8-8 16 2 6 5 9 14 12 5 2 7 4 8 8 1 3 4 8 7 10 11 9 26 4 51-15 7-5 18-11 24-13 9-4 27-12 50-22l5-2-8-5c-5-3-12-7-15-9zm-102.65625 31.34375c.78125-.03125 1.40625.15625 1.65625.65625 1 0 0 2-1 3-3 2-5 2-6 0-.75-1.5 3-3.5625 5.34375-3.65625zm9.8125 13.0625c.44092-.1897 1.65625 1.65625 3.84375 5.59375 4 8 5 9 13 6 4-1 4-1 1 3-2 2-5 3-9 3-5 0-6 0-7-7-1.6875-6.75-2.41064-10.34985-1.84375-10.59375z"/>
    <path d="m497.65625 226.9375c-2.02808-.01465-3.96875.3125-5.65625 1.0625-2 1-6 6-10 11-11 16-23 25-48 37-35 16-54 25-53 26 0 1 7 5 14 9l14 8 18-7c27-11 62-21 82-23 22-3 23-3 28-8 4-5 5-14 0-21-1-3-6-8-11-11-6-3-9-7-9-9 0-6.5-10.55542-12.99902-19.34375-13.0625zm7.34375 37.0625 1 5c2 5-2 9-8 9-2 0-9 2-16 4-6 1-11 2-11 2 0-2 4-4 19-7 12-3 13-3 14-8z"/>
    <path d="m373 224c-1 0-2 1-2 4 0 0-1 6 1 5 2 0 6 2 5-4 0-3-2-5-4-5z"/>
    <path d="m371 253c-1-5-1-8 3-8s5 2 3 7-4 5-6 1z"/>
    <path d="m365 223c-1 0-3 3-3 6v5h4c2 0 1-6 1-8s-1-3-2-3z"/>
    <path d="m363 253c-2-2-1-8 1-8s3 2 3 5c0 4-2 5-4 3z"/>
    <path d="m385 253c-2-3-1-8 3-8 2 0 3 1 3 4-1 4-4 6-6 4z"/>
    <path d="m354 251c-2-2-1-6 2-6 1 0 2 2 2 4 0 3-2 4-4 2z"/>
    <path d="m380 233c-2-2 1-10 3-10 3 1 4 10 0 11-1 0-3 0-3-1z"/>
    <path d="m352 231c-1-4 0-8 4-8 1 0 2 2 2 5 0 6-4 8-6 3z"/>
    <path d="m389 228c0-4 1-5 3-5 2 1 3 2 3 5s-1 5-3 5-3-1-3-5z"/>
    <path d="m358 277c-9-3-10-4-21-17-8-12-9-13-11-37-1-14 0-15 9-7 5 5 6 7 8 18 2 18 9 24 31 24 17 0 24-3 28-12 1-3 3-8 3-10 0-9 4-17 9-20 3-2 6-3 7-3 2 0 0 32-3 37-3 7-17 23-21 25-6 2-31 4-39 2z"/>
    <path d="m373 67c-20 1-22 2-33 7-12 6-26 19-32 32-4 8-4 11-4 28s0 20 4 27c2 5 5 8 5 7 1 0 1-9 1-19 0-18 0-19 6-32 7-13 14-22 12-14s-6 16-9 24c-4 8-5 12-5 27 0 16 0 19-3 20-6 2-8 4-8 7-1 7 4 12 18 18 11 4 15 7 18 11 3 5 6 8 14 10 1 1 11 1 22 1l20-1 8-8c5-6 10-10 16-12 19-7 26-21 13-24l-7-2v-12c0-12 1-17 4-17 1 0 1 5 1 11 0 13 2 14 8 6 5-7 6-38 2-52-5-18-21-34-41-40-7-3-13-3-30-3zm-25.59375 71.375c4.64935-.27661 9.46875 1.5 13.59375 5.625 8 8 3 24-10 31-15 8-23 1-22-15 1.3125-13.125 9.53021-21.09692 18.40625-21.625zm54.15625 0c9.08521-.19336 17.0625 7.875 18.4375 21.625 1 8 1 9-3 13-9 9-21 5-28-8-6-9-6-15 0-21 4.0625-3.75 8.43286-5.53711 12.5625-5.625zm-26.5625 29.625c2 0 7 20 7 27 0 4 0 4-4 1-4-2-5-2-9 0-5 4-6 3-5 0 1-2 1-6 2-9 2-8 7-19 9-19z"/>
  </g>
</svg>

<?xml version="1.0" encoding="utf-8"?>
<!-- https://commons.wikimedia.org/wiki/File:Flag_of_Edward_England.svg -->
<svg version="1.0" baseProfile="Basic"
 xmlns="http://www.w3.org/2000/svg"
 viewBox="209.742 68.667 330.64343 334.33282"
 width="330.64343"
 height="334.33282">

	<g id="flag">
		<g id="symbol" fill="black" class="emblem-color">
			<g id="bones">
			  <path d="M 255 221 C 248 221 239 226 235 232 C 233 236 230 239 227 239 C 218 241 208 256 210 264 C 212 274 220 278 238 280 C 266 284 314 303 362 329 C 410 356 428 365 432 365 C 435 365 446 373 456 382 C 461 387 469 393 473 396 C 488 405 498 403 508 387 C 510 384 512 382 514 383 C 518 384 527 380 530 375 C 532 370 532 361 528 358 C 522 352 517 351 490 349 C 461 348 447 344 429 334 C 424 331 415 327 410 324 C 405 321 391 313 380 307 C 356 293 322 274 307 267 C 293 259 281 249 273 237 C 266 226 261 221 255 221 z M 247.5 257.875 C 247.75 257.75 247.5 258.5 247 260 C 246 264 247 264 257 267 C 267 270 280 276 280 278 C 280 279 278 278 273 276 C 270 275 262 272 256 271 C 249 269 244 267 243 266 C 242 265 243 263 245 261 C 246.5 259 247.25 258 247.5 257.875 z M 448 360 C 449 360 458 366 470 376 C 480 385 482 385 487 384 C 494 382 497 384 491 387 C 485 390 483 390 468 378 C 461 371 453 365 450 364 C 447 363 445 360 448 360 z M 506.34375 363 C 506.81641 362.99414 507.375 363 508 363 C 510 363 512 364 512 365 C 512 368 509 368 506 366 C 503.375 363.375 503.03516 363.04102 506.34375 363 z " />
			  <path d="M 339 320 L 323 328 C 294 341 282 343 239 341 C 228 340 224 341 218 344 C 211 348 209 352 210 360 C 212 366 215 369 224 372 C 229 374 231 376 232 380 C 233 383 236 388 239 390 C 250 399 265 394 290 375 C 297 370 308 364 314 362 C 323 358 341 350 364 340 L 369 338 L 361 333 C 356 330 349 326 346 324 L 339 320 z M 236.34375 351.34375 C 237.125 351.3125 237.75 351.5 238 352 C 239 352 238 354 237 355 C 234 357 232 357 231 355 C 230.25 353.5 234 351.4375 236.34375 351.34375 z M 246.15625 364.40625 C 246.59717 364.21655 247.8125 366.0625 250 370 C 254 378 255 379 263 376 C 267 375 267 375 264 379 C 262 381 259 382 255 382 C 250 382 249 382 248 375 C 246.3125 368.25 245.58936 364.65015 246.15625 364.40625 z " />
			  <path d="M 497.65625 226.9375 C 495.62817 226.92285 493.6875 227.25 492 228 C 490 229 486 234 482 239 C 471 255 459 264 434 276 C 399 292 380 301 381 302 C 381 303 388 307 395 311 L 409 319 L 427 312 C 454 301 489 291 509 289 C 531 286 532 286 537 281 C 541 276 542 267 537 260 C 536 257 531 252 526 249 C 520 246 517 242 517 240 C 517 233.5 506.44458 227.00098 497.65625 226.9375 z M 505 264 L 506 269 C 508 274 504 278 498 278 C 496 278 489 280 482 282 C 476 283 471 284 471 284 C 471 282 475 280 490 277 C 502 274 503 274 504 269 L 505 264 z " />
			</g>
			<g id="teeth">
				<path d="M 373,224 C 372,224 371,225 371,228 C 371,228 370,234 372,233 C 374,233 378,235 377,229 C 377,226 375,224 373,224 z " />
			  <path d="M 371,253 C 370,248 370,245 374,245 C 378,245 379,247 377,252 C 375,257 373,257 371,253 z " />
				<path d="M 365,223 C 364,223 362,226 362,229 C 362,230 362,233 362,234 C 363,234 365,234 366,234 C 368,234 367,228 367,226 C 367,224 366,223 365,223 C 365,223 365,223 365,223 z " />
			  <path d="M 363,253 C 361,251 362,245 364,245 C 366,245 367,247 367,250 C 367,254 365,255 363,253 z " />
			  <path d="M 385,253 C 383,250 384,245 388,245 C 390,245 391,246 391,249 C 390,253 387,255 385,253 z " />
			  <path d="M 354,251 C 352,249 353,245 356,245 C 357,245 358,247 358,249 C 358,252 356,253 354,251 z " />
			  <path d="M 380,233 C 378,231 381,223 383,223 C 386,224 387,233 383,234 C 382,234 380,234 380,233 z " />
			  <path d="M 352,231 C 351,227 352,223 356,223 C 357,223 358,225 358,228 C 358,234 354,236 352,231 z " />
				<path d="M 389,228 C 389,224 390,223 392,223 C 394,224 395,225 395,228 C 395,231 394,233 392,233 C 390,233 389,232 389,228 z " />
			</g>
			<g id="skull">
				<path d="M 358,277 C 349,274 348,273 337,260 C 329,248 328,247 326,223 C 325,209 326,208 335,216 C 340,221 341,223 343,234 C 345,252 352,258 374,258 C 391,258 398,255 402,246 C 403,243 405,238 405,236 C 405,227 409,219 414,216 C 417,214 420,213 421,213 C 423,213 421,245 418,250 C 415,257 401,273 397,275 C 391,277 366,279 358,277 z " />
				<path d="M 373 67 C 353 68 351 69 340 74 C 328 80 314 93 308 106 C 304 114 304 117 304 134 C 304 151 304 154 308 161 C 310 166 313 169 313 168 C 314 168 314 159 314 149 C 314 131 314 130 320 117 C 327 104 334 95 332 103 C 330 111 326 119 323 127 C 319 135 318 139 318 154 C 318 170 318 173 315 174 C 309 176 307 178 307 181 C 306 188 311 193 325 199 C 336 203 340 206 343 210 C 346 215 349 218 357 220 C 358 221 368 221 379 221 L 399 220 L 407 212 C 412 206 417 202 423 200 C 442 193 449 179 436 176 L 429 174 L 429 162 C 429 150 430 145 433 145 C 434 145 434 150 434 156 C 434 169 436 170 442 162 C 447 155 448 124 444 110 C 439 92 423 76 403 70 C 396 67 390 67 373 67 z M 347.40625 138.375 C 352.0556 138.09839 356.875 139.875 361 144 C 369 152 364 168 351 175 C 336 183 328 176 329 160 C 330.3125 146.875 338.53021 138.90308 347.40625 138.375 z M 401.5625 138.375 C 410.64771 138.18164 418.625 146.25 420 160 C 421 168 421 169 417 173 C 408 182 396 178 389 165 C 383 156 383 150 389 144 C 393.0625 140.25 397.43286 138.46289 401.5625 138.375 z M 375 168 C 377 168 382 188 382 195 C 382 199 382 199 378 196 C 374 194 373 194 369 196 C 364 200 363 199 364 196 C 365 194 365 190 366 187 C 368 179 373 168 375 168 z " />
			</g>
		</g>
	</g>
</svg>
